dist/img/picture/brands/nlmk.svg

<svg width="91" height="49" viewBox="0 0 91 49" fill="none" xmlns="http://www.w3.org/2000/svg">
<path fill-rule="evenodd" clip-rule="evenodd" d="M45.6064 4.98489C34.6923 4.98489 24.7874 7.19394 17.614 10.7562C10.4878 14.2949 6.0696 19.1637 6.0696 24.5117C6.0696 29.86 10.488 34.7286 17.6136 38.2675C24.7874 41.83 34.6923 44.0388 45.6064 44.0388C56.5206 44.0388 66.4252 41.83 73.5988 38.2675C80.7245 34.7284 85.1425 29.86 85.1425 24.5117C85.143 19.1637 80.7245 14.2949 73.5988 10.7562C66.4252 7.19373 56.5206 4.98489 45.6064 4.98489ZM45.6064 4.53984C56.5946 4.53984 66.5742 6.76743 73.8074 10.3597C81.0885 13.9755 85.6033 18.9827 85.6033 24.5117C85.6033 30.0412 81.0885 35.0477 73.8074 38.664C66.5742 42.2563 56.5946 44.4838 45.6064 44.4838C34.6179 44.4838 24.6388 42.2563 17.4051 38.664C10.124 35.0477 5.60933 30.0412 5.60933 24.5117C5.60955 18.9821 10.1238 13.9758 17.4053 10.3597C24.6388 6.76743 34.6179 4.53984 45.6064 4.53984ZM65.8271 31.9912V16.7732H70.3015V22.8604L74.6679 16.7732H79.881L74.1027 24.1428L80.0332 31.9912H74.4939L70.3015 25.7735V31.9912H65.8271ZM45.6472 31.9912L47.8627 16.7732H52.3377L54.9007 25.6869L57.4641 16.7732H61.9385L64.1545 31.9912H59.8535L58.7887 23.6865L56.378 31.9912H53.4234L51.0125 23.6865L49.9484 31.9912H45.6472ZM43.9744 16.7732V31.9912H39.4999V20.4255H36.6759V26.4257C36.6759 28.1887 36.4168 29.7545 35.0796 31.0673C33.7471 32.3749 30.9125 32.3422 29.1601 31.9912V28.3389C29.3827 28.403 29.8656 28.4946 30.2246 28.491C32.1668 28.4721 32.2011 26.7016 32.2011 25.1649V16.7732H43.9744ZM13.8895 31.9912V16.7732H18.3642V22.2518H23.3169V16.7732H27.7916V31.9912H23.3169V25.9039H18.3642V31.9912H13.8895ZM45.6067 2.48142C69.0562 2.48142 88.1822 12.3777 88.1822 24.5114C88.1822 36.6455 69.0562 46.5423 45.6067 46.5423C22.1563 46.5423 3.03043 36.6458 3.03043 24.5114C3.03043 12.3777 22.1563 2.48142 45.6067 2.48142ZM45.6064 0.452286C70.5319 0.452286 90.8611 11.2603 90.8611 24.5119C90.8611 37.7632 70.5319 48.5714 45.6064 48.5714C20.6804 48.5712 0.351318 37.7632 0.351318 24.5119C0.351318 11.2603 20.6804 0.452286 45.6064 0.452286Z" fill="#2056AE"/>
</svg>

<svg width="91" height="49" viewBox="0 0 91 49" fill="none" xmlns="http://www.w3.org/2000/svg"><path fill-rule="evenodd" clip-rule="evenodd" d="M45.606 4.985c-10.914 0-20.819 2.209-27.992 5.771C10.488 14.295 6.07 19.164 6.07 24.512c0 5.348 4.418 10.217 11.544 13.755 7.173 3.563 17.078 5.772 27.992 5.772 10.915 0 20.82-2.209 27.993-5.772 7.126-3.539 11.543-8.407 11.543-13.755.001-5.348-4.417-10.217-11.543-13.756-7.174-3.562-17.078-5.771-27.993-5.771zm0-.445c10.989 0 20.968 2.227 28.201 5.82 7.281 3.616 11.796 8.623 11.796 14.152 0 5.53-4.514 10.536-11.796 14.152-7.233 3.592-17.212 5.82-28.2 5.82-10.99 0-20.968-2.228-28.202-5.82C10.124 35.048 5.61 30.041 5.61 24.512c0-5.53 4.515-10.536 11.796-14.152 7.234-3.593 17.213-5.82 28.201-5.82zm20.221 27.45V16.773h4.475v6.087l4.366-6.087h5.213l-5.778 7.37 5.93 7.848h-5.54l-4.191-6.218v6.218h-4.475zm-20.18 0l2.216-15.218h4.475l2.563 8.914 2.563-8.914h4.474l2.216 15.218h-4.3l-1.065-8.305-2.411 8.305h-2.955l-2.41-8.305-1.065 8.305h-4.3zm-1.673-15.218V31.99H39.5V20.425h-2.824v6c0 1.764-.26 3.33-1.596 4.642-1.333 1.308-4.167 1.275-5.92.924V28.34a4.44 4.44 0 001.065.152c1.942-.019 1.976-1.79 1.976-3.326v-8.392h11.773zM13.89 31.991V16.773h4.474v5.479h4.953v-5.479h4.475v15.218h-4.475v-6.087h-4.953v6.087H13.89zm31.717-29.51c23.45 0 42.575 9.897 42.575 22.03 0 12.134-19.126 22.031-42.575 22.031-23.45 0-42.577-9.896-42.577-22.03s19.126-22.03 42.577-22.03zm0-2.029c24.925 0 45.254 10.808 45.254 24.06 0 13.251-20.33 24.06-45.255 24.06C20.68 48.571.351 37.762.351 24.511S20.681.452 45.606.452z" fill="#2056AE"/></svg>
